public/assets/map-icons/de_mirage.svg

<svg width="32" height="32" viewBox="0 0 32 32" fill="none" xmlns="http://www.w3.org/2000/svg">
<path fill-rule="evenodd" clip-rule="evenodd" d="M16.028 0.921005L0.298004 12.349L6.307 30.841H25.75L31.758 12.349L16.028 0.921005Z" fill="#15576F"/>
<path fill-rule="evenodd" clip-rule="evenodd" d="M16.028 1.12L0.507996 12.396L6.437 30.642H25.62L31.547 12.396L16.028 1.12Z" fill="#07A5C2"/>
<path fill-rule="evenodd" clip-rule="evenodd" d="M8.10801 30.673H9.77301V30.128H8.10801V30.673ZM11.563 30.674H13.228V30.128H11.563V30.674ZM15.339 30.674H17.004V30.128H15.339V30.674ZM18.795 30.674H20.46V30.128H18.795V30.674ZM22.539 30.674H24.204V30.128H22.539V30.674ZM25.635 28.918L26.154 29.085L26.667 27.501L26.147 27.334L25.635 28.918ZM26.699 25.63L27.219 25.798L27.731 24.214L27.211 24.046L26.699 25.63ZM27.862 22.037L28.382 22.205L28.894 20.621L28.375 20.452L27.862 22.037ZM28.926 18.75L29.445 18.917L29.958 17.333L29.439 17.166L28.926 18.75ZM30.591 13.604L30.079 15.188L30.599 15.357L31.112 13.772L30.591 13.604ZM5.42301 27.613L5.93701 29.197L6.45601 29.028L5.94301 27.444L5.42301 27.613ZM4.35701 24.325L4.87101 25.909L5.39101 25.74L4.87801 24.157L4.35701 24.325ZM3.19401 20.734L3.70701 22.317L4.22701 22.149L3.71301 20.565L3.19401 20.734ZM2.12901 17.446L2.64201 19.029L3.16101 18.861L2.64801 17.278L2.12901 17.446ZM0.975006 13.884L1.48801 15.469L2.00801 15.3L1.49501 13.716L0.975006 13.884ZM3.26601 11.04L2.94601 10.598L1.59801 11.574L1.91801 12.017L3.26601 11.04ZM6.06501 9.014L5.74501 8.573L4.39601 9.549L4.71601 9.99L6.06501 9.014ZM8.80401 6.358L7.45601 7.334L7.77601 7.777L9.12501 6.8L8.80401 6.358ZM11.604 4.333L10.255 5.309L10.576 5.751L11.925 4.774L11.604 4.333ZM13.289 3.114L13.609 3.556L14.958 2.58L14.637 2.137L13.289 3.114ZM28.944 10.482L28.624 10.923L29.971 11.902L30.292 11.46L28.944 10.482ZM27.495 9.431L26.148 8.452L25.827 8.894L27.175 9.87101L27.495 9.431ZM22.771 6.676L24.118 7.655L24.438 7.213L23.091 6.235L22.771 6.676ZM19.975 4.646L21.323 5.625L21.643 5.183L20.295 4.204L19.975 4.646ZM16.945 2.445L18.292 3.424L18.613 2.983L17.266 2.005L16.945 2.445Z" fill="#15576F"/>
<path fill-rule="evenodd" clip-rule="evenodd" d="M15.992 1.825L1.07599 12.663L6.77299 30.198H25.211L30.909 12.663L15.992 1.825Z" fill="#07A5C2"/>
<path fill-rule="evenodd" clip-rule="evenodd" d="M15.992 2.688L1.983 12.867L7.334 29.336H24.65L30.001 12.867L15.992 2.688Z" fill="#C6C5C5"/>
<path fill-rule="evenodd" clip-rule="evenodd" d="M15.992 3.17599L2.431 13.027L7.611 28.971H24.374L29.553 13.027L15.992 3.17599Z" fill="#AE2324"/>
<path fill-rule="evenodd" clip-rule="evenodd" d="M15.992 3.17599L16.119 28.971H24.374L29.553 13.027L15.992 3.17599Z" fill="#6B100F"/>
<path d="M10.069 26.302L10.612 25.591H10.979V27.508H10.558V26.311L10.101 26.913H10.038L9.58201 26.311V27.508H9.16101V25.591H9.52601L10.069 26.302Z" fill="#DEDEDD"/>
<path d="M11.85 25.591V27.508H11.429V25.591H11.85Z" fill="#DEDEDD"/>
<path d="M12.301 25.591H13.057C13.221 25.591 13.354 25.645 13.456 25.751C13.558 25.859 13.61 25.989 13.61 26.143C13.61 26.354 13.513 26.51 13.319 26.612C13.403 26.655 13.485 26.773 13.562 26.965C13.637 27.157 13.711 27.339 13.783 27.509H13.321C13.293 27.446 13.245 27.325 13.177 27.149C13.108 26.971 13.049 26.857 13.001 26.806C12.952 26.756 12.9 26.731 12.844 26.731H12.723V27.509H12.302V25.591H12.301ZM12.723 25.941V26.378H12.946C13.017 26.378 13.073 26.359 13.115 26.321C13.157 26.284 13.177 26.229 13.177 26.159C13.177 26.013 13.097 25.941 12.936 25.941H12.723Z" fill="#DEDEDD"/>
<path d="M15.092 25.591L15.843 27.508H15.39L15.25 27.129H14.493L14.367 27.508H13.921L14.604 25.591H15.092ZM15.127 26.794L14.853 26.049L14.605 26.794H15.127Z" fill="#DEDEDD"/>
<path d="M17.527 25.723V26.143C17.311 26.025 17.101 25.965 16.895 25.965C16.697 25.965 16.543 26.023 16.437 26.135C16.33 26.249 16.276 26.394 16.276 26.569C16.276 26.738 16.329 26.875 16.437 26.978C16.544 27.082 16.686 27.134 16.86 27.134C16.953 27.134 17.046 27.113 17.14 27.067V26.842H16.895V26.491H17.562V27.274C17.496 27.35 17.394 27.412 17.257 27.461C17.12 27.509 16.985 27.533 16.85 27.533C16.556 27.533 16.314 27.44 16.125 27.257C15.936 27.072 15.841 26.838 15.841 26.553C15.841 26.261 15.935 26.025 16.125 25.84C16.314 25.657 16.559 25.567 16.86 25.567C17.108 25.566 17.331 25.618 17.527 25.723Z" fill="#DEDEDD"/>
<path d="M19.242 27.156V27.508H17.995V25.591H19.224V25.942H18.416V26.344H19.187V26.696H18.416V27.157L19.242 27.156Z" fill="#DEDEDD"/>
<path fill-rule="evenodd" clip-rule="evenodd" d="M22.595 26.201L21.786 26.131L21.489 25.397L21.192 26.131L20.383 26.201L21.009 26.696L20.806 27.501L21.489 27.045L22.172 27.501L21.97 26.696L22.595 26.201Z" fill="#30B14A"/>
<path fill-rule="evenodd" clip-rule="evenodd" d="M24.267 16.688L24.064 11.535H24.315V11.152H24.049L24.028 10.592H21.004L20.981 11.152H20.587V11.535H20.966L20.764 16.688L18.54 16.672L18.349 10.448H18.667V10.063H18.338L18.316 9.345H14.716L14.692 10.063H14.284V10.448H14.679L14.476 16.672H12.701L12.512 11.535H12.796V11.152H12.497L12.476 10.576H9.42001L9.40101 11.152H9.06801V11.535H9.38801L9.21201 16.672H8.49301V17.071L24.78 17.056V16.688H24.267Z" fill="#5A0F0F"/>
<path fill-rule="evenodd" clip-rule="evenodd" d="M23.851 16.271L23.649 11.12H23.9V10.735H23.634L23.611 10.176H20.587L20.566 10.735H20.172V11.12H20.55L20.348 16.271L18.124 16.256L17.934 10.032H18.251V9.64701H17.922L17.899 8.92801H14.3L14.277 9.64701H13.868V10.032H14.264L14.061 16.256H12.284L12.095 11.12H12.38V10.735H12.082L12.06 10.159H9.00499L8.98499 10.735H8.65299V11.12H8.97199L8.79599 16.256H8.07599V16.656L24.364 16.64V16.271H23.851Z" fill="#56A5B3"/>
<path fill-rule="evenodd" clip-rule="evenodd" d="M9.70801 12.384H9.96401V11.76H9.70801V12.384ZM11.18 12.384H11.436V11.76H11.18V12.384ZM10.444 12.384H10.7V11.76H10.444V12.384ZM15.18 11.199H15.436V10.576H15.18V11.199ZM16.652 11.199H16.908V10.576H16.652V11.199ZM15.916 11.199H16.172V10.576H15.916V11.199ZM21.292 12.384H21.548V11.76H21.292V12.384ZM22.764 11.76V12.384H23.02V11.76H22.764ZM22.028 12.384H22.284V11.76H22.028V12.384Z" fill="#3F3F3F"/>
<path fill-rule="evenodd" clip-rule="evenodd" d="M14.208 21.103C14.122 20.899 13.751 20.45 13.431 20.049C13.098 19.648 12.816 19.291 12.623 19.224C12.545 19.411 12.713 19.854 13.017 20.294C13.308 20.732 13.736 21.169 13.901 21.28C14.021 21.364 14.166 21.446 14.265 21.499C14.015 21.488 13.764 21.472 13.514 21.449C13.485 21.356 13.428 21.173 13.389 21.061C13.318 20.861 12.996 20.413 12.72 20.011C12.432 19.607 12.188 19.249 12.01 19.175C11.927 19.354 12.06 19.79 12.321 20.228C12.571 20.664 12.947 21.1 13.096 21.216C13.202 21.3 13.333 21.385 13.424 21.441C13.185 21.417 12.946 21.388 12.709 21.354C12.686 21.265 12.643 21.087 12.611 20.979C12.554 20.785 12.279 20.341 12.042 19.941C11.795 19.539 11.585 19.18 11.422 19.101C11.336 19.272 11.437 19.7 11.658 20.132C11.867 20.562 12.198 20.995 12.331 21.113C12.426 21.198 12.542 21.285 12.624 21.341C12.396 21.308 12.17 21.269 11.945 21.224C11.928 21.137 11.896 20.966 11.874 20.863C11.727 20.47 11.1 19.154 10.859 19.004C10.621 19.312 11.308 20.725 11.606 20.981C11.689 21.065 11.793 21.152 11.866 21.21C11.668 21.171 11.47 21.125 11.274 21.078C11.262 20.994 11.24 20.83 11.224 20.728C11.104 20.349 10.582 19.051 10.358 18.895C10.12 19.19 10.698 20.575 10.966 20.831C11.041 20.915 11.134 21.001 11.199 21.06C11.01 21.012 10.822 20.96 10.635 20.907C10.627 20.825 10.614 20.668 10.604 20.57C10.511 20.204 10.083 18.93 9.877 18.77C9.641 19.05 10.115 20.402 10.357 20.659C10.423 20.742 10.505 20.827 10.565 20.885C10.379 20.83 10.195 20.772 10.013 20.709C10.01 20.632 10.006 20.48 10 20.389C9.932 20.035 9.593 18.789 9.403 18.626C9.169 18.894 9.549 20.21 9.764 20.464C9.821 20.545 9.894 20.628 9.946 20.687C9.784 20.631 9.623 20.571 9.463 20.51C9.463 20.434 9.467 20.29 9.466 20.201C9.42 19.857 9.156 18.642 8.981 18.48C8.75 18.735 9.047 20.016 9.239 20.265C9.289 20.344 9.353 20.427 9.401 20.484C9.237 20.421 9.075 20.353 8.914 20.282C8.918 20.21 8.929 20.074 8.933 19.987C8.907 19.659 8.718 18.479 8.557 18.315C8.328 18.556 8.546 19.8 8.715 20.044C8.758 20.12 8.815 20.201 8.856 20.257C8.697 20.188 8.54 20.115 8.383 20.038C8.342 20.002 8.293 19.96 8.244 19.92C8.016 19.799 6.298 18.665 5.681 18.363C5.884 18.846 7.745 20.018 8.134 20.056C8.176 20.068 8.228 20.079 8.279 20.089C8.451 20.175 8.626 20.257 8.801 20.336C8.719 20.337 8.601 20.339 8.492 20.347C8.199 20.405 6.428 20.616 6.076 20.78C6.482 20.994 8.231 20.735 8.548 20.53C8.642 20.483 8.785 20.403 8.859 20.362C9.022 20.434 9.185 20.503 9.349 20.568C9.264 20.573 9.14 20.581 9.027 20.591C8.723 20.664 6.912 20.963 6.566 21.156C6.997 21.365 8.785 21.011 9.1 20.784C9.195 20.73 9.338 20.638 9.412 20.592C9.574 20.656 9.736 20.717 9.899 20.775C9.81 20.784 9.681 20.796 9.563 20.813C9.25 20.9 7.398 21.289 7.059 21.511C7.517 21.717 9.345 21.261 9.655 21.012C9.75 20.95 9.894 20.849 9.966 20.797C10.151 20.861 10.336 20.922 10.523 20.979C10.43 20.992 10.294 21.011 10.172 21.034C9.847 21.138 7.952 21.631 7.62 21.888C8.106 22.084 9.977 21.516 10.284 21.24C10.379 21.173 10.521 21.058 10.593 21C10.782 21.057 10.972 21.109 11.162 21.157C11.065 21.176 10.923 21.201 10.795 21.23C10.465 21.353 8.522 21.954 8.197 22.246C8.714 22.434 10.627 21.746 10.93 21.444C11.025 21.367 11.166 21.24 11.237 21.176C11.436 21.226 11.634 21.272 11.834 21.313C11.733 21.336 11.585 21.371 11.451 21.407C11.111 21.549 9.122 22.266 8.806 22.595C9.354 22.77 11.312 21.955 11.61 21.623C11.705 21.538 11.844 21.398 11.914 21.329C12.141 21.375 12.369 21.415 12.597 21.451C12.492 21.48 12.336 21.522 12.197 21.568C11.844 21.734 9.805 22.587 9.502 22.958C10.087 23.117 12.094 22.153 12.385 21.79C12.479 21.696 12.616 21.54 12.684 21.464C12.923 21.499 13.163 21.53 13.404 21.554C13.294 21.589 13.13 21.645 12.984 21.7C12.62 21.891 10.53 22.891 10.238 23.304C10.863 23.446 12.92 22.32 13.202 21.924C13.294 21.819 13.429 21.648 13.494 21.564C13.746 21.587 13.999 21.606 14.251 21.618C14.136 21.661 13.964 21.727 13.812 21.793C13.437 22.014 11.295 23.174 11.018 23.63C11.687 23.749 13.793 22.447 14.065 22.018C14.155 21.902 14.286 21.713 14.349 21.622C14.656 21.635 14.963 21.64 15.27 21.634C15.274 21.604 15.28 21.562 15.281 21.51C14.975 21.516 14.671 21.514 14.367 21.503C14.328 21.408 14.257 21.218 14.208 21.103ZM24.083 20.056C24.472 20.018 26.333 18.846 26.536 18.363C25.919 18.665 24.2 19.799 23.972 19.92C23.923 19.96 23.874 20.002 23.834 20.038C23.678 20.115 23.52 20.187 23.361 20.257C23.402 20.201 23.459 20.12 23.502 20.044C23.67 19.801 23.889 18.557 23.66 18.315C23.499 18.479 23.309 19.659 23.283 19.988C23.288 20.074 23.298 20.21 23.303 20.282C23.142 20.353 22.98 20.421 22.817 20.484C22.863 20.427 22.928 20.344 22.979 20.265C23.17 20.016 23.468 18.735 23.237 18.48C23.062 18.642 22.799 19.857 22.751 20.201C22.751 20.29 22.754 20.433 22.756 20.51C22.595 20.571 22.434 20.631 22.272 20.687C22.325 20.628 22.397 20.545 22.455 20.464C22.67 20.21 23.049 18.894 22.816 18.626C22.626 18.789 22.287 20.035 22.218 20.389C22.214 20.481 22.21 20.632 22.206 20.709C22.023 20.772 21.839 20.83 21.653 20.885C21.712 20.827 21.795 20.742 21.861 20.659C22.103 20.402 22.577 19.051 22.342 18.77C22.136 18.93 21.708 20.204 21.614 20.57C21.604 20.668 21.592 20.825 21.584 20.907C21.396 20.961 21.208 21.012 21.019 21.06C21.085 21 21.177 20.914 21.252 20.831C21.52 20.575 22.098 19.19 21.861 18.895C21.637 19.051 21.114 20.349 20.995 20.728C20.978 20.83 20.957 20.994 20.944 21.078C20.748 21.126 20.55 21.171 20.352 21.21C20.425 21.152 20.528 21.065 20.613 20.981C20.911 20.725 21.598 19.312 21.36 19.004C21.119 19.154 20.492 20.471 20.346 20.863C20.323 20.967 20.291 21.137 20.274 21.224C20.048 21.269 19.822 21.308 19.595 21.341C19.676 21.285 19.793 21.198 19.887 21.113C20.02 20.995 20.35 20.561 20.561 20.132C20.781 19.699 20.882 19.272 20.796 19.101C20.632 19.18 20.423 19.539 20.175 19.941C19.938 20.341 19.663 20.785 19.606 20.979C19.576 21.087 19.531 21.265 19.508 21.354C19.27 21.388 19.032 21.417 18.793 21.441C18.883 21.385 19.013 21.3 19.12 21.216C19.269 21.1 19.646 20.663 19.895 20.228C20.155 19.79 20.289 19.354 20.206 19.175C20.028 19.249 19.784 19.607 19.496 20.011C19.219 20.412 18.898 20.861 18.827 21.061C18.788 21.172 18.732 21.356 18.702 21.449C18.452 21.471 18.201 21.488 17.95 21.499C18.05 21.446 18.195 21.364 18.315 21.28C18.481 21.169 18.908 20.733 19.2 20.294C19.504 19.854 19.671 19.41 19.595 19.224C19.402 19.291 19.119 19.648 18.786 20.049C18.466 20.449 18.096 20.899 18.009 21.103C17.961 21.218 17.89 21.409 17.854 21.502C17.549 21.513 17.245 21.515 16.94 21.509C16.941 21.561 16.946 21.603 16.951 21.633C17.258 21.639 17.564 21.634 17.871 21.621C17.934 21.712 18.064 21.9 18.155 22.017C18.427 22.447 20.533 23.748 21.202 23.629C20.925 23.173 18.783 22.013 18.407 21.792C18.255 21.727 18.083 21.66 17.968 21.617C18.221 21.605 18.474 21.587 18.725 21.563C18.791 21.647 18.925 21.818 19.017 21.923C19.3 22.319 21.355 23.444 21.981 23.303C21.689 22.89 19.601 21.89 19.235 21.699C19.089 21.644 18.926 21.589 18.816 21.553C19.056 21.53 19.296 21.498 19.536 21.463C19.603 21.539 19.742 21.695 19.835 21.789C20.127 22.152 22.133 23.116 22.717 22.957C22.413 22.586 20.375 21.733 20.022 21.567C19.883 21.521 19.727 21.479 19.621 21.45C19.85 21.414 20.078 21.374 20.305 21.328C20.374 21.397 20.515 21.537 20.609 21.622C20.908 21.954 22.865 22.768 23.413 22.594C23.098 22.265 21.11 21.547 20.768 21.406C20.635 21.37 20.487 21.336 20.386 21.312C20.586 21.271 20.784 21.225 20.982 21.175C21.053 21.238 21.194 21.365 21.29 21.443C21.593 21.745 23.507 22.432 24.022 22.245C23.697 21.953 21.754 21.352 21.424 21.229C21.296 21.2 21.154 21.174 21.058 21.156C21.248 21.108 21.437 21.055 21.627 20.999C21.698 21.058 21.841 21.172 21.936 21.239C22.243 21.515 24.113 22.084 24.6 21.887C24.268 21.629 22.373 21.137 22.049 21.033C21.925 21.011 21.791 20.991 21.698 20.978C21.885 20.921 22.07 20.861 22.254 20.796C22.327 20.848 22.47 20.949 22.566 21.011C22.875 21.26 24.703 21.716 25.161 21.51C24.821 21.287 22.97 20.899 22.656 20.812C22.538 20.794 22.409 20.783 22.321 20.774C22.484 20.716 22.647 20.656 22.808 20.591C22.881 20.638 23.025 20.73 23.12 20.783C23.435 21.011 25.224 21.364 25.654 21.155C25.308 20.962 23.496 20.663 23.193 20.59C23.079 20.579 22.956 20.571 22.87 20.567C23.035 20.502 23.198 20.433 23.36 20.361C23.433 20.402 23.577 20.482 23.672 20.529C23.988 20.734 25.737 20.993 26.144 20.779C25.792 20.616 24.021 20.404 23.728 20.346C23.619 20.339 23.501 20.336 23.419 20.335C23.594 20.256 23.768 20.174 23.941 20.088C23.988 20.079 24.041 20.067 24.083 20.056Z" fill="#BFC25A"/>
</svg>

<svg xmlns="http://www.w3.org/2000/svg" xml:space="preserve" viewBox="0 0 32 32"><path fill="#15576F" fill-rule="evenodd" d="M16.03.92.3 12.35l6.01 18.49h19.44l6.01-18.49z" clip-rule="evenodd"/><path fill="#07A5C2" fill-rule="evenodd" d="M16.03 1.12.51 12.4l5.93 18.24h19.18l5.93-18.24z" clip-rule="evenodd"/><path fill="#15576F" fill-rule="evenodd" d="M8.1 30.67h1.67v-.54H8.11v.54zm3.46 0h1.67v-.54h-1.67v.54zm3.78 0H17v-.54h-1.66v.54zm3.46 0h1.66v-.54h-1.67v.54zm3.74 0h1.66v-.54h-1.66v.54zm3.1-1.75.51.16.52-1.58-.52-.17-.51 1.59zm1.06-3.29.52.17.51-1.59-.52-.16-.51 1.58zm1.16-3.6.52.17.51-1.58-.52-.17-.5 1.59zm1.07-3.28.51.17.52-1.59-.52-.16-.51 1.58zm1.66-5.15-.51 1.59.52.17.51-1.59-.52-.17zM5.42 27.61l.52 1.59.52-.17-.52-1.59-.52.17zm-1.06-3.29.51 1.59.52-.17-.51-1.58-.52.16zm-1.17-3.59.52 1.59.52-.17-.52-1.58-.52.16zm-1.06-3.28.51 1.58.52-.17-.51-1.58-.52.17zM.98 13.88l.5 1.59.53-.17-.51-1.58-.53.16zm2.29-2.84-.32-.44-1.35.97.32.45 1.35-.98zm2.8-2.03-.32-.44-1.35.98.32.44 1.35-.98zM8.8 6.36l-1.34.97.32.45 1.35-.98-.33-.44zm2.8-2.03-1.35.98.33.44 1.34-.98-.32-.44zm1.69-1.22.32.45 1.35-.98-.32-.44-1.35.97zm15.65 7.37-.32.44 1.35.98.32-.44-1.35-.98zM27.5 9.43l-1.34-.98-.32.44 1.34.98.32-.44zm-4.72-2.75 1.35.98.32-.45-1.35-.97-.32.44zm-2.8-2.03 1.35.97.32-.44-1.34-.98-.32.45zm-3.02-2.2 1.34.97.32-.44-1.34-.97-.32.44z" clip-rule="evenodd"/><path fill="#07A5C2" fill-rule="evenodd" d="M15.99 1.82 1.08 12.66 6.77 30.2h18.44l5.7-17.54z" clip-rule="evenodd"/><path fill="#C6C5C5" fill-rule="evenodd" d="M15.99 2.69 1.98 12.87l5.35 16.47h17.32L30 12.87z" clip-rule="evenodd"/><path fill="#AE2324" fill-rule="evenodd" d="M15.99 3.18 2.43 13.03l5.18 15.94h16.76l5.18-15.94z" clip-rule="evenodd"/><path fill="#6B100F" fill-rule="evenodd" d="m15.99 3.18.13 25.79h8.25l5.18-15.94z" clip-rule="evenodd"/><g fill="#DEDEDD"><path d="m10.07 26.3.54-.7h.37v1.9h-.42v-1.19l-.46.6h-.06l-.46-.6v1.2h-.42v-1.92h.37l.54.71zM11.85 25.6v1.9h-.42v-1.9h.42zM12.3 25.6h.76c.16 0 .3.04.4.15.1.1.15.24.15.4a.5.5 0 0 1-.3.46c.1.05.17.16.25.36l.22.54h-.46a9.82 9.82 0 0 1-.14-.36 1.2 1.2 0 0 0-.18-.34.22.22 0 0 0-.16-.08h-.12v.78h-.42v-1.92zm.42.34v.44h.23c.07 0 .12-.02.17-.06.04-.04.06-.1.06-.16 0-.15-.08-.22-.24-.22h-.22zM15.1 25.6l.74 1.9h-.45l-.14-.37h-.76l-.12.38h-.45l.68-1.92h.5zm.03 1.2-.28-.75-.24.74h.52zM17.53 25.72v.42a1.31 1.31 0 0 0-.64-.17.6.6 0 0 0-.45.17.61.61 0 0 0-.16.43c0 .17.05.3.16.4.1.11.25.16.42.16.1 0 .19-.02.28-.06v-.23h-.24v-.35h.66v.78a.71.71 0 0 1-.3.2c-.14.04-.28.06-.41.06a1 1 0 0 1-.72-.27.94.94 0 0 1-.29-.7.95.95 0 0 1 1.02-1c.25 0 .47.06.67.16zM19.24 27.16v.35H18v-1.92h1.22v.35h-.8v.4h.77v.36h-.77v.46h.82z"/></g><path fill="#30B14A" fill-rule="evenodd" d="m22.59 26.2-.8-.07-.3-.73-.3.73-.81.07.63.5-.2.8.68-.45.68.45-.2-.8z" clip-rule="evenodd"/><path fill="#5A0F0F" fill-rule="evenodd" d="m24.27 16.69-.21-5.15h.26v-.39h-.27l-.02-.56H21l-.02.56h-.39v.39h.38l-.21 5.15-2.22-.02-.19-6.22h.32v-.39h-.33l-.02-.71h-3.6l-.03.71h-.41v.39h.4l-.2 6.22H12.7l-.19-5.13h.29v-.39h-.3l-.02-.57H9.42l-.02.57h-.33v.39h.32l-.18 5.13h-.72v.4l16.29-.01v-.37z" clip-rule="evenodd"/><path fill="#56A5B3" fill-rule="evenodd" d="m23.85 16.27-.2-5.15h.25v-.39h-.27l-.02-.55h-3.02l-.02.55h-.4v.39h.38l-.2 5.15-2.23-.01-.19-6.23h.32v-.38h-.33l-.02-.72h-3.6l-.02.72h-.41v.38h.39l-.2 6.23h-1.78l-.18-5.14h.28v-.39h-.3l-.02-.57H9.01l-.03.57h-.33v.39h.32l-.17 5.14h-.72v.4l16.28-.02v-.37z" clip-rule="evenodd"/><path fill="#3F3F3F" fill-rule="evenodd" d="M9.7 12.38h.26v-.62h-.25v.62zm1.48 0h.26v-.62h-.26v.62zm-.74 0h.26v-.62h-.26v.62zm4.74-1.18h.26v-.62h-.26v.62zm1.47 0h.26v-.62h-.26v.62zm-.73 0h.25v-.62h-.25v.62zm5.37 1.18h.26v-.62h-.26v.62zm1.47-.62v.62h.26v-.62h-.26zm-.73.62h.25v-.62h-.25v.62z" clip-rule="evenodd"/><path fill="#BFC25A" fill-rule="evenodd" d="M14.2 21.1c-.08-.2-.45-.65-.77-1.05-.33-.4-.61-.76-.8-.83-.08.2.08.63.39 1.07.29.44.72.88.88.99l.37.22-.76-.05c-.02-.1-.08-.28-.12-.39-.07-.2-.4-.65-.67-1.05-.29-.4-.53-.76-.71-.83-.08.17.05.61.31 1.05.25.43.63.87.78.99l.32.22a17 17 0 0 1-.71-.09l-.1-.37c-.06-.2-.33-.64-.57-1.04-.24-.4-.45-.76-.62-.84-.08.17.02.6.24 1.03.2.43.54.87.67.98.1.09.21.18.3.23-.23-.03-.46-.07-.68-.12l-.08-.36c-.14-.39-.77-1.7-1.01-1.86-.24.31.45 1.73.75 1.98.08.09.18.17.26.23l-.6-.13c0-.09-.03-.25-.05-.35a7.25 7.25 0 0 0-.86-1.83c-.24.29.34 1.68.6 1.93l.24.23-.56-.15-.04-.34a6.92 6.92 0 0 0-.72-1.8c-.24.28.23 1.63.48 1.89l.2.23-.55-.18-.01-.32c-.07-.35-.4-1.6-.6-1.76-.23.26.15 1.58.36 1.83.06.09.13.17.19.23l-.49-.18v-.3a6.15 6.15 0 0 0-.48-1.73c-.23.26.07 1.54.26 1.79l.16.21-.49-.2.02-.3a5.85 5.85 0 0 0-.37-1.66c-.23.24-.01 1.48.16 1.72l.14.22-.48-.22a5.2 5.2 0 0 0-.14-.12c-.22-.12-1.94-1.25-2.56-1.56.2.49 2.07 1.66 2.45 1.7l.15.03.52.25h-.3c-.3.07-2.07.28-2.42.44.4.21 2.15-.04 2.47-.25l.3-.17.5.2-.32.03c-.3.07-2.12.37-2.46.57.43.2 2.22-.15 2.53-.38l.31-.19.49.19-.34.03c-.31.09-2.16.48-2.5.7.46.2 2.29-.25 2.6-.5l.3-.21.56.18-.35.05c-.32.1-2.22.6-2.55.86.49.2 2.36-.37 2.66-.65l.31-.24.57.16-.36.07c-.33.12-2.28.72-2.6 1.02.51.18 2.43-.5 2.73-.8l.3-.27c.2.05.4.1.6.13l-.38.1c-.34.14-2.33.86-2.64 1.19.54.17 2.5-.64 2.8-.98.1-.08.23-.22.3-.3.23.06.46.1.69.13l-.4.12c-.36.16-2.4 1.02-2.7 1.39.59.16 2.6-.8 2.89-1.17l.3-.33.71.1-.42.14c-.36.2-2.45 1.2-2.74 1.6.62.15 2.68-.98 2.96-1.38.1-.1.23-.27.3-.36l.75.06c-.11.04-.29.1-.44.17-.37.22-2.51 1.38-2.8 1.84.68.12 2.78-1.18 3.06-1.61l.28-.4c.3.02.61.02.92.01l.01-.12h-.91l-.16-.4zm9.88-1.04c.4-.04 2.25-1.21 2.46-1.7-.62.3-2.34 1.44-2.57 1.56l-.14.12-.47.22.14-.22c.17-.24.39-1.48.16-1.73a5.85 5.85 0 0 0-.38 1.68l.02.3-.48.2.16-.22c.19-.25.49-1.53.26-1.79a6.22 6.22 0 0 0-.49 1.72v.31l-.48.18.18-.23c.22-.25.6-1.57.37-1.83-.2.16-.53 1.4-.6 1.76l-.01.32-.56.18.21-.23c.24-.26.72-1.6.48-1.89-.2.16-.63 1.43-.73 1.8l-.03.34-.56.15.23-.23c.27-.25.85-1.64.61-1.93a7.21 7.21 0 0 0-.87 1.83l-.05.35c-.2.05-.39.1-.59.13.07-.06.18-.14.26-.23.3-.25.99-1.67.75-1.98a7.51 7.51 0 0 0-1.01 1.86l-.08.36c-.22.05-.45.09-.68.12.09-.05.2-.14.3-.23.13-.11.46-.55.67-.98.22-.43.32-.86.24-1.03-.17.08-.38.44-.63.84-.23.4-.5.85-.56 1.04l-.1.37-.72.1.33-.23c.15-.12.53-.56.78-1 .26-.43.39-.87.3-1.04-.17.07-.42.43-.7.83-.28.4-.6.85-.67 1.05l-.13.39-.75.05.36-.22c.17-.11.6-.55.89-.99.3-.44.47-.88.4-1.07-.2.07-.48.43-.81.83-.32.4-.7.85-.78 1.05l-.16.4c-.3.01-.6.02-.91 0l.01.13h.92l.28.39c.28.43 2.38 1.73 3.05 1.6-.28-.45-2.42-1.6-2.8-1.83a11 11 0 0 0-.43-.17l.75-.06c.07.09.2.26.3.36.28.4 2.33 1.52 2.96 1.38-.3-.41-2.38-1.41-2.75-1.6l-.41-.15.72-.09c.06.08.2.24.3.33.29.36 2.3 1.33 2.88 1.17-.3-.37-2.35-1.23-2.7-1.4l-.4-.11.68-.12.3.3c.3.32 2.26 1.14 2.81.96-.31-.32-2.3-1.04-2.64-1.18l-.38-.1.6-.13c.06.06.2.19.3.26.3.3 2.22 1 2.73.8-.32-.29-2.27-.89-2.6-1.01l-.36-.07.57-.16.3.24c.31.28 2.18.84 2.67.65-.33-.26-2.23-.75-2.55-.86l-.35-.05.55-.18.32.21c.3.25 2.13.7 2.6.5-.35-.22-2.2-.61-2.51-.7l-.34-.04c.16-.05.33-.11.49-.18l.31.2c.32.22 2.1.57 2.53.37-.34-.2-2.15-.5-2.46-.57a6.97 6.97 0 0 0-.32-.02l.49-.2.31.16c.32.2 2.07.46 2.47.25-.35-.16-2.12-.38-2.41-.43l-.31-.01.52-.25.14-.03z" clip-rule="evenodd"/><path fill="#DEDEDD" fill-rule="evenodd" d="M12.83 17.81h1.1v-.01a.32.32 0 0 0-.32-.29h-.82a.32.32 0 0 0-.32.33v.7c0 .18.14.32.32.32h.83c.16 0 .3-.12.32-.29v-.02h-1.11v-.74zm2.55.23h-.86v-.24h1.16a.33.33 0 0 0-.33-.29h-.83a.32.32 0 0 0-.33.33v.2c.02.16.16.29.32.29h.86v.24H14.2c.02.17.16.3.32.3h.87c.17 0 .32-.15.32-.33v-.21a.32.32 0 0 0-.32-.3zm3.97-.54h-.85a.31.31 0 0 0-.3.31v.73c0 .17.13.31.3.31h.85c.17 0 .3-.14.3-.3v-.74a.31.31 0 0 0-.3-.31zm.02 1.1h-.89v-.85h.89v.85zM17 18.2c.06.08.16.09.2.09h.44v.3h-.94v-.83h1.23a.31.31 0 0 0-.3-.26h-.91a.31.31 0 0 0-.31.31v.73c0 .17.14.31.31.31h.9a.3.3 0 0 0 .31-.27v-.51h-1c0 .02.02.07.07.13z" clip-rule="evenodd"/></svg>
